packages/kaspersky-hexa-ui-icons/src/iconsSVGs/24/HomeActive.svg

<svg width="24" height="24" viewBox="0 0 24 24" fill="none" xmlns="http://www.w3.org/2000/svg">
<path d="M3.87957 11.1538C3.43231 11.4714 2.81465 11.3646 2.49999 10.9153C2.18534 10.4659 2.29284 9.8441 2.74011 9.52645L11.9443 2.98972C12.1219 2.86361 12.3263 2.80439 12.528 2.80696C12.7296 2.80439 12.9341 2.86361 13.1116 2.98972L22.3158 9.52645C22.7631 9.8441 22.8706 10.4659 22.5559 10.9153C22.2413 11.3646 21.6236 11.4714 21.1763 11.1538L20.5288 10.6939V17.8702C20.5288 19.527 19.1857 20.8702 17.5288 20.8702H16.5V14.3702C16.5 13.5417 15.8284 12.8702 15 12.8702H9.99999C9.17157 12.8702 8.49999 13.5417 8.49999 14.3702V20.8702H7.52881C5.87195 20.8702 4.52881 19.527 4.52881 17.8702V10.6927L3.87957 11.1538Z" fill="black"/>
<path d="M10.5 20.8702H14.5V14.8702H10.5V20.8702Z" fill="black"/>
</svg>

<svg xmlns="http://www.w3.org/2000/svg" width="24" height="24" fill="none" viewBox="0 0 24 24"><path fill="#000" d="M3.8796 11.1538A.9854.9854 0 0 1 2.5 10.9153c-.3147-.4494-.2072-1.0712.2401-1.3888l9.2042-6.5368a.983.983 0 0 1 .5837-.1827.983.983 0 0 1 .5836.1827l9.2042 6.5368c.4473.3176.5548.9394.2401 1.3888a.9854.9854 0 0 1-1.3796.2385l-.6475-.4599v7.1763c0 1.6568-1.3431 3-3 3H16.5v-6.5c0-.8285-.6716-1.5-1.5-1.5h-5c-.8284 0-1.5.6715-1.5 1.5v6.5h-.9712c-1.6569 0-3-1.3432-3-3v-7.1775z"/><path fill="#000" d="M10.5 20.8702h4v-6h-4z"/></svg>
